X: 150517
T: Old West Clare Jig
S: "Treoir" 
Z: B.Black
M: 6/8
L: 1/8
R: jig
K: Ador
AGE G2 E | c2 E EGE | DED D2 E | GED D2 D |
AGE G2 E | C2 E DEG | A3 BAG | A3 A3 :|
c2 B c2 d | eAA A2 d | BGG GAB | dBG G2 A/B/ |
c2 B c2 d | eAA A2 c | BAG GAB | A3 A3 :|
